#define maniclives_width 256
#define maniclives_height 64
static unsigned char maniclives_bits[] = {
 0x00,0x00,0x00,0x00,0x00,0x00,0x00,0x00,0x00,0x00,0x00,0x00,0x00,0x00,0x00,
 0x00,0x00,0x00,0x00,0x00,0x00,0x00,0x00,0x00,0x00,0x00,0x00,0x00,0x00,0x00,
 0x00,0x00,0x00,0x00,0x00,0x00,0x00,0x00,0x00,0x00,0x00,0x3c,0x00,0x00,0x08,
 0x00,0x00,0x08,0x00,0x3c,0x00,0x00,0x00,0x00,0x00,0x00,0x00,0x00,0x00,0x00,
 0x00,0x00,0x00,0x00,0x00,0x00,0x00,0x00,0x00,0x00,0x00,0x00,0x00,0x42,0x1c,
 0x1e,0x1c,0x38,0x1c,0x08,0x00,0x42,0x1c,0x22,0x1c,0x38,0x1e,0x00,0x00,0x00,
 0x00,0x00,0x00,0x00,0x00,0x00,0x00,0x00,0x00,0x00,0x00,0x00,0x00,0x00,0x00,
 0x02,0x22,0x22,0x08,0x04,0x20,0x08,0x00,0x02,0x20,0x22,0x22,0x04,0x22,0x00,
 0x00,0x00,0x00,0x00,0x00,0x00,0x00,0x00,0x00,0x00,0x00,0x00,0x00,0x00,0x00,
 0x00,0x00,0x02,0x1e,0x22,0x08,0x04,0x3c,0x08,0x00,0x02,0x3c,0x14,0x1e,0x04,
 0x22,0x00,0x00,0x00,0x00,0x00,0x00,0x00,0x00,0x00,0x00,0x00,0x00,0x00,0x00,
 0x00,0x00,0x00,0x00,0x42,0x02,0x22,0x08,0x04,0x22,0x08,0x00,0x42,0x22,0x14,
 0x02,0x04,0x22,0x00,0x00,0x00,0x00,0x00,0x00,0x00,0x00,0x00,0x00,0x00,0x00,
 0x00,0x00,0x00,0x00,0x00,0x00,0x3c,0x3c,0x22,0x30,0x04,0x3c,0x30,0x00,0x3c,
 0x3c,0x08,0x3c,0x04,0x22,0x00,0x00,0x00,0x00,0x00,0x00,0x00,0x00,0x00,0x00,
 0x00,0x00,0x00,0x00,0x00,0x00,0x00,0x00,0x00,0x00,0x00,0x00,0x00,0x00,0x00,
 0x00,0x00,0x00,0x00,0x00,0x00,0x00,0x00,0x00,0x00,0x00,0x00,0x00,0x00,0x00,
 0x00,0x00,0x00,0x00,0x00,0x00,0x00,0x00,0x00,0x00,0x00,0x00,0x00,0x00,0x00,
 0x00,0x00,0x00,0x00,0x00,0x00,0x00,0x00,0x00,0x00,0x00,0x00,0x00,0x00,0x00,
 0x00,0x00,0x00,0x3c,0x7c,0x3e,0x00,0x00,0x00,0x00,0x00,0x00,0x00,0x00,0x00,
 0x00,0x00,0x00,0x00,0x00,0x00,0x00,0x00,0x00,0x00,0x00,0x00,0x00,0x00,0x00,
 0x00,0x00,0x00,0x00,0x00,0x42,0x10,0x42,0x00,0xff,0xff,0xff,0xff,0xff,0xff,
 0xff,0xff,0xff,0xff,0xff,0xff,0xff,0xff,0xff,0xff,0xff,0xff,0xff,0xff,0xff,
 0xff,0xff,0xff,0xff,0xff,0x07,0x00,0x42,0x10,0x42,0x00,0xff,0xff,0xff,0xff,
 0xff,0xff,0xff,0xff,0xff,0xff,0xff,0xff,0xff,0xff,0xff,0xff,0xff,0xff,0xff,
 0xff,0xff,0xff,0xff,0xff,0xff,0xff,0x07,0x00,0x7e,0x10,0x3e,0x00,0xff,0xff,
 0xff,0xff,0xff,0xff,0xff,0xff,0xff,0xff,0xff,0xff,0xff,0xff,0xff,0xff,0xff,
 0xff,0xff,0xff,0xff,0xff,0xff,0xff,0xff,0xff,0x07,0x00,0x42,0x10,0x22,0x00,
 0xff,0xff,0xff,0xff,0xff,0xff,0xff,0xff,0xff,0xff,0xff,0xff,0xff,0xff,0xff,
 0xff,0xff,0xff,0xff,0xff,0xff,0xff,0xff,0xff,0xff,0xff,0x07,0x00,0x42,0x7c,
 0x42,0x00,0x00,0x00,0x00,0x00,0x00,0x00,0x00,0x00,0x00,0x00,0x00,0x00,0x00,
 0x00,0x00,0x00,0x00,0x00,0x00,0x00,0x00,0x00,0x00,0x00,0x00,0x00,0x00,0x00,
 0x00,0x00,0x00,0x00,0x00,0x00,0x00,0x00,0x00,0x00,0x00,0x00,0x00,0x00,0x00,
 0x00,0x00,0x00,0x00,0x00,0x00,0x00,0x00,0x00,0x00,0x00,0x00,0x00,0x00,0x00,
 0x00,0x00,0x00,0x00,0x00,0x00,0x00,0x00,0x00,0x00,0x00,0x00,0x00,0x00,0x00,
 0x00,0x00,0x00,0x00,0x00,0x00,0x00,0x00,0x00,0x00,0x00,0x00,0x00,0x00,0x00,
 0x00,0x00,0x00,0x00,0x00,0x00,0x00,0x00,0x00,0x00,0x00,0x00,0x00,0x00,0x00,
 0x00,0x00,0x00,0x00,0x00,0x00,0x00,0x00,0x00,0x00,0x00,0x00,0x00,0x00,0x00,
 0x00,0x00,0x00,0x00,0x00,0x00,0x00,0x00,0x00,0x00,0x00,0x00,0x00,0x00,0x00,
 0x00,0x00,0x00,0x00,0x00,0x00,0x00,0x00,0x00,0x00,0x00,0x00,0x00,0x00,0x00,
 0x00,0x00,0x00,0x00,0x00,0x00,0x00,0x00,0x00,0x00,0x00,0x00,0x00,0x00,0x00,
 0x00,0x00,0x00,0x00,0x00,0x00,0x00,0x00,0x00,0x00,0x00,0x00,0x00,0x00,0x00,
 0x00,0x00,0x00,0x00,0x00,0x00,0x00,0x00,0x00,0x00,0x00,0x00,0x00,0x00,0x00,
 0x00,0x00,0x00,0x00,0x00,0x00,0x00,0x00,0x00,0x00,0x00,0x00,0x00,0x00,0x00,
 0x00,0x00,0x00,0x00,0x00,0x00,0x00,0x00,0x00,0x00,0x00,0x00,0x00,0x00,0x00,
 0x00,0x00,0x00,0x00,0x00,0x00,0x00,0x00,0x00,0x00,0x00,0x00,0x00,0x00,0x00,
 0x00,0x00,0x00,0x00,0x00,0x00,0x00,0x00,0x00,0x00,0x00,0x00,0x00,0x00,0x00,
 0x00,0x00,0x00,0x00,0x00,0x00,0x00,0x00,0x00,0x00,0x00,0x00,0x00,0x00,0x00,
 0x00,0x00,0x00,0x00,0x00,0x00,0x00,0x00,0x00,0x00,0x00,0x00,0x00,0x00,0x00,
 0x00,0x00,0x00,0x00,0x00,0x00,0x00,0x00,0x00,0x00,0x00,0x00,0x00,0x00,0x00,
 0x00,0x00,0x00,0x00,0x00,0x00,0x00,0x00,0x00,0x00,0x00,0x00,0x00,0x00,0x00,
 0x00,0x00,0x00,0x00,0x00,0x00,0x00,0x00,0x00,0x00,0x00,0x00,0x00,0x00,0x00,
 0x00,0x00,0x00,0x00,0x00,0x00,0x00,0x00,0x00,0x00,0x00,0x00,0x00,0x00,0x00,
 0x00,0x00,0x00,0x00,0x00,0x42,0x08,0x00,0x02,0x00,0x3c,0x00,0x00,0x00,0x00,
 0x00,0x3c,0x3c,0x3c,0x3c,0x3c,0x3c,0x00,0x00,0x00,0x3c,0x00,0x00,0x00,0x00,
 0x00,0x3c,0x3c,0x3c,0x3c,0x3c,0x3c,0x42,0x00,0x3c,0x02,0x00,0x02,0x38,0x1c,
 0x38,0x1c,0x00,0x62,0x62,0x62,0x62,0x62,0x62,0x00,0x00,0x00,0x02,0x38,0x1c,
 0x38,0x1c,0x00,0x62,0x62,0x62,0x62,0x62,0x62,0x7e,0x0c,0x22,0x1e,0x00,0x3c,
 0x04,0x22,0x04,0x22,0x00,0x52,0x52,0x52,0x52,0x52,0x52,0x00,0x00,0x00,0x3c,
 0x04,0x22,0x04,0x22,0x00,0x52,0x52,0x52,0x52,0x52,0x52,0x42,0x08,0x22,0x22,
 0x00,0x40,0x04,0x22,0x04,0x1e,0x00,0x4a,0x4a,0x4a,0x4a,0x4a,0x4a,0x00,0x00,
 0x00,0x40,0x04,0x22,0x04,0x1e,0x00,0x4a,0x4a,0x4a,0x4a,0x4a,0x4a,0x42,0x08,
 0x3c,0x22,0x00,0x42,0x04,0x22,0x04,0x02,0x00,0x46,0x46,0x46,0x46,0x46,0x46,
 0x00,0x00,0x00,0x42,0x04,0x22,0x04,0x02,0x00,0x46,0x46,0x46,0x46,0x46,0x46,
 0x42,0x1c,0x20,0x22,0x00,0x3c,0x38,0x1c,0x04,0x3c,0x00,0x3c,0x3c,0x3c,0x3c,
 0x3c,0x3c,0x00,0x00,0x00,0x3c,0x38,0x1c,0x04,0x3c,0x00,0x3c,0x3c,0x3c,0x3c,
 0x3c,0x3c,0x00,0x00,0x1c,0x00,0x00,0x00,0x00,0x00,0x00,0x00,0x00,0x00,0x00,
 0x00,0x00,0x00,0x00,0x00,0x00,0x00,0x00,0x00,0x00,0x00,0x00,0x00,0x00,0x00,
 0x00,0x00,0x00,0x00,0x00,0x00,0x00,0x00,0x00,0x00,0x00,0x00,0x00,0x00,0x00,
 0x00,0x00,0x00,0x00,0x00,0x00,0x00,0x00,0x00,0x00,0x00,0x00,0x00,0x00,0x00,
 0x00,0x00,0x00,0x00,0x00,0x00,0x00,0x00,0x00,0x00,0x00,0x00,0x00,0x00,0x00,
 0x00,0x00,0x00,0x00,0x00,0x00,0x00,0x00,0x00,0x00,0x00,0x00,0x00,0x00,0x00,
 0x00,0x00,0x00,0x00,0x00,0x00,0x00,0x00,0x00,0x00,0x00,0x00,0x00,0x00,0x00,
 0x00,0x00,0x00,0x00,0x00,0x00,0x00,0x00,0x00,0x00,0x00,0x00,0x00,0x00,0x00,
 0x00,0x00,0x00,0x00,0x00,0x00,0x00,0x00,0x00,0x00,0x00,0x00,0x00,0x00,0x00,
 0x00,0x00,0x00,0x00,0x00,0x00,0x00,0x00,0x00,0x00,0x00,0x00,0x00,0x00,0x00,
 0x00,0x00,0x00,0x00,0x00,0x00,0x00,0x00,0x00,0x00,0x00,0x00,0x00,0x00,0x00,
 0x00,0x00,0x00,0x00,0x00,0x00,0x00,0x00,0x00,0x00,0x00,0x00,0x00,0x00,0x00,
 0x00,0x00,0x00,0x00,0x00,0x00,0x00,0x00,0x00,0x00,0x00,0x00,0x00,0x00,0x00,
 0x00,0x00,0x00,0x00,0x00,0x00,0x00,0x00,0x00,0x00,0x00,0x00,0x00,0x00,0x00,
 0x00,0x00,0x00,0x00,0x00,0x00,0x00,0x00,0x00,0x00,0x00,0x00,0x00,0x00,0x00,
 0x00,0x00,0x00,0x00,0x00,0x00,0x00,0x00,0x00,0x00,0x00,0x00,0x00,0x00,0x00,
 0x00,0x00,0x00,0x00,0x00,0x00,0x00,0x00,0x00,0x00,0x00,0x00,0x00,0x00,0x00,
 0x00,0x00,0x00,0x00,0x00,0x00,0x00,0x00,0x00,0x00,0x00,0x00,0x00,0x00,0x00,
 0x00,0x00,0x00,0x00,0x00,0x00,0x00,0x00,0x00,0x00,0x00,0x00,0x00,0x00,0x00,
 0x00,0x00,0x00,0x00,0x00,0x60,0x00,0x60,0x00,0x60,0x00,0x60,0x00,0x60,0x00,
 0x60,0x00,0x60,0x00,0x60,0x00,0x60,0x00,0x60,0x00,0x60,0x00,0x60,0x00,0x60,
 0x00,0x60,0x00,0x60,0x00,0x60,0x00,0x7c,0x00,0x7c,0x00,0x7c,0x00,0x7c,0x00,
 0x7c,0x00,0x7c,0x00,0x7c,0x00,0x7c,0x00,0x7c,0x00,0x7c,0x00,0x7c,0x00,0x7c,
 0x00,0x7c,0x00,0x7c,0x00,0x7c,0x00,0x7c,0x00,0x3e,0x00,0x3e,0x00,0x3e,0x00,
 0x3e,0x00,0x3e,0x00,0x3e,0x00,0x3e,0x00,0x3e,0x00,0x3e,0x00,0x3e,0x00,0x3e,
 0x00,0x3e,0x00,0x3e,0x00,0x3e,0x00,0x3e,0x00,0x3e,0x00,0x2c,0x00,0x2c,0x00,
 0x2c,0x00,0x2c,0x00,0x2c,0x00,0x2c,0x00,0x2c,0x00,0x2c,0x00,0x2c,0x00,0x2c,
 0x00,0x2c,0x00,0x2c,0x00,0x2c,0x00,0x2c,0x00,0x2c,0x00,0x2c,0x00,0x7c,0x00,
 0x7c,0x00,0x7c,0x00,0x7c,0x00,0x7c,0x00,0x7c,0x00,0x7c,0x00,0x7c,0x00,0x7c,
 0x00,0x7c,0x00,0x7c,0x00,0x7c,0x00,0x7c,0x00,0x7c,0x00,0x7c,0x00,0x7c,0x00,
 0x3c,0x00,0x3c,0x00,0x3c,0x00,0x3c,0x00,0x3c,0x00,0x3c,0x00,0x3c,0x00,0x3c,
 0x00,0x3c,0x00,0x3c,0x00,0x3c,0x00,0x3c,0x00,0x3c,0x00,0x3c,0x00,0x3c,0x00,
 0x3c,0x00,0x18,0x00,0x18,0x00,0x18,0x00,0x18,0x00,0x18,0x00,0x18,0x00,0x18,
 0x00,0x18,0x00,0x18,0x00,0x18,0x00,0x18,0x00,0x18,0x00,0x18,0x00,0x18,0x00,
 0x18,0x00,0x18,0x00,0x3c,0x00,0x3c,0x00,0x3c,0x00,0x3c,0x00,0x3c,0x00,0x3c,
 0x00,0x3c,0x00,0x3c,0x00,0x3c,0x00,0x3c,0x00,0x3c,0x00,0x3c,0x00,0x3c,0x00,
 0x3c,0x00,0x3c,0x00,0x3c,0x00,0x7e,0x00,0x7e,0x00,0x7e,0x00,0x7e,0x00,0x7e,
 0x00,0x7e,0x00,0x7e,0x00,0x7e,0x00,0x7e,0x00,0x7e,0x00,0x7e,0x00,0x7e,0x00,
 0x7e,0x00,0x7e,0x00,0x7e,0x00,0x7e,0x00,0x7e,0x00,0x7e,0x00,0x7e,0x00,0x7e,
 0x00,0x7e,0x00,0x7e,0x00,0x7e,0x00,0x7e,0x00,0x7e,0x00,0x7e,0x00,0x7e,0x00,
 0x7e,0x00,0x7e,0x00,0x7e,0x00,0x7e,0x00,0x7e,0x00,0xef,0x00,0xef,0x00,0xef,
 0x00,0xef,0x00,0xef,0x00,0xef,0x00,0xef,0x00,0xef,0x00,0xef,0x00,0xef,0x00,
 0xef,0x00,0xef,0x00,0xef,0x00,0xef,0x00,0xef,0x00,0xef,0x00,0xdf,0x00,0xdf,
 0x00,0xdf,0x00,0xdf,0x00,0xdf,0x00,0xdf,0x00,0xdf,0x00,0xdf,0x00,0xdf,0x00,
 0xdf,0x00,0xdf,0x00,0xdf,0x00,0xdf,0x00,0xdf,0x00,0xdf,0x00,0xdf,0x00,0x3c,
 0x00,0x3c,0x00,0x3c,0x00,0x3c,0x00,0x3c,0x00,0x3c,0x00,0x3c,0x00,0x3c,0x00,
 0x3c,0x00,0x3c,0x00,0x3c,0x00,0x3c,0x00,0x3c,0x00,0x3c,0x00,0x3c,0x00,0x3c,
 0x00,0x6e,0x00,0x6e,0x00,0x6e,0x00,0x6e,0x00,0x6e,0x00,0x6e,0x00,0x6e,0x00,
 0x6e,0x00,0x6e,0x00,0x6e,0x00,0x6e,0x00,0x6e,0x00,0x6e,0x00,0x6e,0x00,0x6e,
 0x00,0x6e,0x00,0x76,0x00,0x76,0x00,0x76,0x00,0x76,0x00,0x76,0x00,0x76,0x00,
 0x76,0x00,0x76,0x00,0x76,0x00,0x76,0x00,0x76,0x00,0x76,0x00,0x76,0x00,0x76,
 0x00,0x76,0x00,0x76,0x00,0xee,0x00,0xee,0x00,0xee,0x00,0xee,0x00,0xee,0x00,
 0xee,0x00,0xee,0x00,0xee,0x00,0xee,0x00,0xee,0x00,0xee,0x00,0xee,0x00,0xee,
 0x00,0xee,0x00,0xee,0x00,0xee,0x00,0x00,0x00,0x00,0x00,0x00,0x00,0x00,0x00,
 0x00,0x00,0x00,0x00,0x00,0x00,0x00,0x00,0x00,0x00,0x00,0x00,0x00,0x00,0x00,
 0x00,0x00,0x00,0x00,0x00,0x00,0x00,0x00,0x00,0x00,0x00,0x00,0x00,0x00,0x00,
 0x00,0x00,0x00,0x00,0x00,0x00,0x00,0x00,0x00,0x00,0x00,0x00,0x00,0x00,0x00,
 0x00,0x00,0x00,0x00,0x00,0x00,0x00,0x00,0x00,0x00,0x00,0x00,0x00,0x00,0x00,
 0x00,0x00,0x00,0x00,0x00,0x00,0x00,0x00,0x00,0x00,0x00,0x00,0x00,0x00,0x00,
 0x00,0x00,0x00,0x00,0x00,0x00,0x00,0x00,0x00,0x00,0x00,0x00,0x00,0x00,0x00,
 0x00,0x00,0x00,0x00,0x00,0x00,0x00,0x00,0x00,0x00,0x00,0x00,0x00,0x00,0x00,
 0x00,0x00,0x00,0x00,0x00,0x00,0x00,0x00,0x00,0x00,0x00,0x00,0x00,0x00,0x00,
 0x00,0x00,0x00,0x00,0x00,0x00,0x00,0x00,0x00,0x00,0x00,0x00,0x00,0x00,0x00,
 0x00,0x00,0x00,0x00,0x00,0x00,0x00,0x00,0x00,0x00,0x00,0x00,0x00,0x00,0x00,
 0x00,0x00,0x00,0x00,0x00,0x00,0x00,0x00,0x00,0x00,0x00,0x00,0x00,0x00,0x00,
 0x00,0x00,0x00,0x00,0x00,0x00,0x00,0x00,0x00,0x00,0x00,0x00,0x00,0x00,0x00,
 0x00,0x00,0x00,0x00,0x00,0x00,0x00,0x00,0x00,0x00,0x00,0x00,0x00,0x00,0x00,
 0x00,0x00,0x00,0x00,0x00,0x00,0x00,0x00,0x00,0x00,0x00,0x00,0x00,0x00,0x00,
 0x00,0x00,0x00,0x00,0x00,0x00,0x00,0x00,0x00,0x00,0x00,0x00,0x00,0x00,0x00,
 0x00,0x00,0x00,0x00,0x00,0x00,0x00,0x00,0x00,0x00,0x00,0x00,0x00,0x00,0x00,
 0x00,0x00,0x00,0x00,0x00,0x00,0x00,0x00};
